X: 26885
T: Minnie Foster's
R: hornpipe
M: 4/4
K: Dmajor
|:(3dcB|A>DF>A B>GB>d|A>DF>A d2 c>d|e<Ac>e f>df>a|e>dc>B A>GF>G|
A>D (3FGA B2 (3Bcd|A<>DF>A d2 c>d|e<Ac>e f>ae>c|d2 d>c d2:|
|:(3faf|e>Ac>e f>d (3fga|e>Ac>e f2 (3def|e>a^g>f (3efe (3dcB|(3ABA ^G>B A2 =G2|
(3FED F>A d>fa>f|g2 B2 b2 a>g|(3faf d>f (3ege c>e|d2 f2 d2:|

